img/icons/hardware/tablet.svg

<svg viewBox="0 0 16 16" xmlns="http://www.w3.org/2000/svg"><path d="m14.4 0.212c-0.724-0.436-1.65-0.177-2.07 0.577l-3.97 7.16c-0.221 0.399-0.338 0.852-0.338 1.31l-5.1e-4 1.68c-2.5e-4 0.81 0.841 1.32 1.51 0.911l1.4-0.841c0.383-0.231 0.701-0.562 0.922-0.962l3.97-7.16c0.418-0.754 0.17-1.72-0.554-2.15l-0.873-0.526zm-1.19 1.1c0.139-0.251 0.448-0.338 0.689-0.192l0.873 0.526c0.241 0.145 0.324 0.467 0.185 0.718l-3.97 7.16c-0.133 0.24-0.324 0.439-0.553 0.577l-1.4 0.842 5.2e-4 -1.68c8e-5 -0.277 0.07-0.549 0.203-0.788l3.97-7.16z" clip-rule="evenodd" fill="#000" fill-rule="evenodd"/><path d="m9 2.5c0-0.276-0.224-0.5-0.5-0.5h-3.7c-1.68 0-2.52 0-3.16 0.327-0.564 0.288-1.02 0.747-1.31 1.31-0.327 0.642-0.327 1.48-0.327 3.16v2.4c0 1.68 0 2.52 0.327 3.16 0.288 0.564 0.747 1.02 1.31 1.31 0.642 0.327 1.48 0.327 3.16 0.327h6.4c1.68 0 2.52 0 3.16-0.327 0.564-0.288 1.02-0.746 1.31-1.31 0.327-0.642 0.327-1.48 0.327-3.16v-1.7c0-0.276-0.224-0.5-0.5-0.5s-0.5 0.224-0.5 0.5v1.7c0 0.857-8e-4 1.44-0.0376 1.89-0.0358 0.438-0.101 0.663-0.18 0.819-0.192 0.376-0.498 0.682-0.874 0.874-0.156 0.0797-0.381 0.145-0.819 0.18-0.45 0.0367-1.03 0.0375-1.89 0.0375h-6.4c-0.298 0-0.563-1e-4 -0.8-0.0018v-10c0.237-0.00167 0.502-0.00176 0.8-0.00176h3.7c0.276 0 0.5-0.224 0.5-0.5zm-6 0.531v9.94c-0.0302-2e-3 -0.0599-0.0043-0.089-0.0066-0.438-0.0359-0.663-0.101-0.819-0.18-0.376-0.192-0.682-0.498-0.874-0.874-0.0797-0.156-0.145-0.381-0.18-0.819-0.0368-0.45-0.0376-1.03-0.0376-1.89v-2.4c0-0.857 7.8e-4 -1.44 0.0376-1.89 0.0358-0.438 0.101-0.663 0.18-0.819 0.192-0.376 0.498-0.682 0.874-0.874 0.156-0.0797 0.381-0.145 0.819-0.18 0.0291-0.00238 0.0587-0.00461 0.089-0.00669z" clip-rule="evenodd" fill="#000" fill-rule="evenodd"/></svg>

<svg xmlns="http://www.w3.org/2000/svg" viewBox="0 0 16 16" fill="none">
  <path fill="#000" fill-rule="evenodd"
    d="M14.37.212c-.723-.436-1.648-.177-2.066.577L8.339 7.951c-.222.4-.338.853-.338 1.314v1.682c0 .81.84 1.316 1.512.91l1.397-.84c.383-.231.7-.563.922-.963l3.965-7.162c.418-.754.17-1.719-.553-2.154L14.37.212Zm-1.193 1.103a.493.493 0 0 1 .69-.192l.872.525a.538.538 0 0 1 .185.719L10.96 9.529a1.55 1.55 0 0 1-.554.577l-1.396.841V9.265c0-.276.07-.548.203-.788l3.965-7.162Z"
    clip-rule="evenodd" />
  <path fill="#000" fill-rule="evenodd"
    d="M9 2.5a.5.5 0 0 0-.5-.5H4.8c-1.68 0-2.52 0-3.162.327A3 3 0 0 0 .327 3.638C0 4.28 0 5.12 0 6.8v2.4c0 1.68 0 2.52.327 3.162a3 3 0 0 0 1.311 1.311C2.28 14 3.12 14 4.8 14h6.4c1.68 0 2.52 0 3.162-.327a3 3 0 0 0 1.311-1.31C16 11.72 16 10.88 16 9.2V7.5a.5.5 0 0 0-1 0v1.7c0 .857 0 1.44-.038 1.89-.035.438-.1.662-.18.818a2 2 0 0 1-.874.874c-.156.08-.38.145-.819.18-.45.037-1.032.038-1.889.038H4.8c-.298 0-.563 0-.8-.002V3.002C4.237 3 4.502 3 4.8 3h3.7a.5.5 0 0 0 .5-.5Zm-6 .531v9.938a6.916 6.916 0 0 1-.089-.006c-.438-.036-.663-.101-.819-.18a2 2 0 0 1-.874-.875c-.08-.156-.145-.38-.18-.819C1 10.64 1 10.057 1 9.2V6.8c0-.856 0-1.439.038-1.889.035-.438.1-.662.18-.819a2 2 0 0 1 .874-.874c.156-.08.38-.144.819-.18L3 3.03Z"
    clip-rule="evenodd" />
</svg>
